svg/newrelic.svg

<?xml version="1.0" encoding="UTF-8"?>
<svg xmlns="http://www.w3.org/2000/svg" xmlns:xlink="http://www.w3.org/1999/xlink" width="40.615002" height="32" viewBox="0 0 40.615002 32">
<path fill-rule="nonzero" fill="rgb(0%, 54.901963%, 60.000002%)" fill-opacity="1" d="M 39.09375 11.730469 C 37.246094 3.238281 27.0625 -1.757812 16.347656 0.570312 C 5.628906 2.898438 -1.558594 11.675781 0.289062 20.164062 C 2.136719 28.652344 12.320312 33.652344 23.035156 31.320312 C 33.75 28.992188 40.941406 20.226562 39.097656 11.726562 Z M 19.691406 23.773438 C 15.367188 23.773438 11.863281 20.269531 11.867188 15.945312 C 11.867188 11.621094 15.371094 8.117188 19.695312 8.121094 C 24.015625 8.121094 27.519531 11.628906 27.519531 15.949219 C 27.515625 20.269531 24.011719 23.773438 19.691406 23.773438 M 19.691406 23.773438 "/>
<path fill-rule="nonzero" fill="rgb(43.921569%, 80.000001%, 82.745099%)" fill-opacity="1" d="M 21.421875 4.988281 C 15.214844 4.988281 10.1875 10.023438 10.1875 16.230469 C 10.1875 22.4375 15.21875 27.464844 21.425781 27.464844 C 27.632812 27.464844 32.664062 22.433594 32.664062 16.226562 C 32.664062 13.246094 31.480469 10.386719 29.371094 8.28125 C 27.261719 6.175781 24.402344 4.992188 21.421875 4.988281 M 19.691406 22.777344 C 17.878906 22.78125 16.136719 22.0625 14.855469 20.777344 C 13.570312 19.496094 12.851562 17.753906 12.855469 15.941406 C 12.851562 12.847656 14.929688 10.136719 17.921875 9.335938 C 20.910156 8.535156 24.0625 9.839844 25.613281 12.519531 C 27.160156 15.199219 26.710938 18.585938 24.523438 20.773438 C 23.242188 22.054688 21.503906 22.773438 19.691406 22.773438 Z M 19.691406 22.777344 "/>
</svg>

<svg role="img" viewBox="0 0 40.615 32" xmlns="http://www.w3.org/2000/svg"><path d="M39.094 11.73C37.246 3.238 27.062-1.758 16.348.57 5.628 2.898-1.56 11.676.289 20.164S12.32 33.652 23.035 31.32c10.715-2.328 17.906-11.093 16.063-19.593ZM19.69 23.773a7.82 7.82 0 0 1-7.824-7.828 7.82 7.82 0 0 1 7.828-7.824c4.32 0 7.825 3.508 7.825 7.828a7.83 7.83 0 0 1-7.829 7.824m0 0" fill="rgb(0%, 54.901963%, 60.000002%)"/><path d="M21.422 4.988c-6.207 0-11.234 5.035-11.234 11.242s5.03 11.235 11.238 11.235 11.238-5.031 11.238-11.238c0-2.98-1.184-5.84-3.293-7.946a11.27 11.27 0 0 0-7.95-3.293m-1.73 17.79a6.8 6.8 0 0 1-4.836-2 6.8 6.8 0 0 1-2-4.837 6.83 6.83 0 0 1 5.067-6.605 6.84 6.84 0 0 1 7.691 3.184 6.84 6.84 0 0 1-1.09 8.253 6.83 6.83 0 0 1-4.832 2Zm0 0" fill="rgb(43.921569%, 80.000001%, 82.745099%)"/></svg>
